X: 1
T:Harrington's Hall -- Jig
M:6/8
L:1/8
R:jig
B:Ryan's Mammoth Collection
N:84 430
Z:Contributed by Ray Davies,  ray:davies99.freeserve.co.uk
K:D
uA|\
d2d ceA | dff f2g | afd dcd | e3/2(d/e/f/) gfe |
d2d ceA | dff f2g | afd Bgf | edc d2 :|
|:ug|\
fdf fga | fdd dcd | eAA fAA | e3/2(g/f/a/) gfe |
d2d ceA | dff f2g | afd Bgf | edc d2:|
